kora-light/actions/scalable/office-chart-bar-percentage.svg

<svg xmlns="http://www.w3.org/2000/svg" style="fill-rule:evenodd;clip-rule:evenodd;stroke-linejoin:round;stroke-miterlimit:2" width="100%" height="100%" version="1.1" viewBox="0 0 16 16" xml:space="preserve">
 <defs>
  <style id="current-color-scheme" type="text/css">
   .ColorScheme-Text { color:#444444; } .ColorScheme-Highlight { color:#4285f4; } .ColorScheme-NeutralText { color:#ff9800; } .ColorScheme-PositiveText { color:#4caf50; } .ColorScheme-NegativeText { color:#f44336; }
  </style>
 </defs>
 <path style="fill:currentColor;" class="ColorScheme-Text" d="M4,13l9,0l0,-5l-4,0l0,5l-1,0l0,-6l-1,0l0,6l-2,0l0,-6l-1,0l0,6Zm0,-11l0,1l1,0l0,3l1,0l0,-4l-2,0Zm4.5,0c-0.831,0 -1.5,0.669 -1.5,1.5l0,1c0,0.831 0.669,1.5 1.5,1.5c0.831,0 1.5,-0.669 1.5,-1.5l0,-1c0,-0.831 -0.669,-1.5 -1.5,-1.5Zm4,0c-0.831,0 -1.5,0.669 -1.5,1.5l0,1c0,0.831 0.669,1.5 1.5,1.5c0.831,0 1.5,-0.669 1.5,-1.5l0,-1c0,-0.831 -0.669,-1.5 -1.5,-1.5Zm-4,1c0.277,0 0.5,0.223 0.5,0.5l0,1c0,0.277 -0.223,0.5 -0.5,0.5c-0.277,0 -0.5,-0.223 -0.5,-0.5l0,-1c0,-0.277 0.223,-0.5 0.5,-0.5Zm4,0c0.277,0 0.5,0.223 0.5,0.5l0,1c0,0.277 -0.223,0.5 -0.5,0.5c-0.277,0 -0.5,-0.223 -0.5,-0.5l0,-1c0,-0.277 0.223,-0.5 0.5,-0.5Zm-2.5,6l2,0l0,4l-2,0l0,-4Z"/>
 <path style="fill:currentColor;fill-opacity:0.3;" class="ColorScheme-Text" d="M2,2l0,12l12,0l0,-1l-11,0l0,-11l-1,0Z"/>
</svg>

<svg xmlns="http://www.w3.org/2000/svg" width="16" height="16" viewBox="0 0 16 16">
 <defs>
  <style id="current-color-scheme" type="text/css">
   .ColorScheme-Text { color:#444444; } .ColorScheme-Highlight { color:#4285f4; }
  </style>
 </defs>
 <path style="fill:currentColor" class="ColorScheme-Text" d="M 2 2 L 2 13 L 2 14 L 3 14 L 14 14 L 14 13 L 13 13 L 13 8 L 9 8 L 9 13 L 8 13 L 8 7 L 7 7 L 7 13 L 5 13 L 5 7 L 4 7 L 4 13 L 3 13 L 3 2 L 2 2 z M 4 2 L 4 3 L 5 3 L 5 6 L 6 6 L 6 2 L 5 2 L 4 2 z M 8.5 2 C 7.669 2 7 2.669 7 3.5 L 7 4.5 C 7 5.331 7.669 6 8.5 6 C 9.331 6 10 5.331 10 4.5 L 10 3.5 C 10 2.669 9.331 2 8.5 2 z M 12.5 2 C 11.669 2 11 2.669 11 3.5 L 11 4.5 C 11 5.331 11.669 6 12.5 6 C 13.331 6 14 5.331 14 4.5 L 14 3.5 C 14 2.669 13.331 2 12.5 2 z M 8.5 3 C 8.777 3 9 3.223 9 3.5 L 9 4.5 C 9 4.777 8.777 5 8.5 5 C 8.223 5 8 4.777 8 4.5 L 8 3.5 C 8 3.223 8.223 3 8.5 3 z M 12.5 3 C 12.777 3 13 3.223 13 3.5 L 13 4.5 C 13 4.777 12.777 5 12.5 5 C 12.223 5 12 4.777 12 4.5 L 12 3.5 C 12 3.223 12.223 3 12.5 3 z M 10 9 L 12 9 L 12 13 L 10 13 L 10 9 z"/>
</svg>
